X:114
T:Constitution Hornpipe
M:2/4
L:1/16
Q:1/4=60
K:D
%%MIDI program 72
%%MIDI transpose 8
|:(3ABc|d2d2 dAfd|e2e2 eAge|fedc BAgf|edef eABc|d2d2 dAfd|
e2e2 eAge|fedc Bgec|d2f2 d2::A2|FAdA fdAF|GBdB gdBG|
Acec gece|dfed cBAG|FAdA fdAF|GBdB gdBG|Acec gece|d2f2d2:|
P:2nd fife harmony by C. Myers
|:AG|F2FE DFAF|G2GF ECEG|A2F2 D2FG|A2AB AGFE|F2FE DFAF|
G2GF ECEG|A2AF GFEG|F2E2 D2::F2|D2F2 A2D2|B,2D2 G2D2|
C2A,2 E2G2|A2A2 AGFE|D2F2 A2D2|B,2D2 G2D2|A2A2 AGFE|F2A2D2:|
